public/avatar/hat/125.svg

<svg xmlns:xlink="http://www.w3.org/1999/xlink" height="92.9" width="100.7" xmlns="http://www.w3.org/2000/svg"><use height="27.1" transform="translate(16.75 40.85)" width="42.85" xlink:href="#a"/><defs><g id="a"><path d="M1.45-7.25 4.6-8.4 2.25-5.45Q.6-2.9 1.45-.6q1-2.5 3.25-3.4 2.95-1.1 3.65-1.9Q8.5-2.3 4.8-.35q3.55.2 6.35 1.65 3.45 1.85 6.15 2.4-3.25 1.95-7.15.95 3 1.55 5.85 5.8 2.65 4 4.45 4.7-7.55-.55-12.4-7.2.75 3.2-.05 6.9-.8-4.3-3.2-8.05L2.6 3.85q0 1.5-1.1 3-1.25 1.7-3.4 2.2.65-1.75.5-3.65l-.3-1.6q-6 4.4-8.7 13.45-.3-3.2.45-6l.75-2.15q-5.65 6.45-12.2 8.6 1.4-1.05 4.75-5.7 3.25-4.5 4.35-5.2-3-.2-4.3-2.5 2.6.2 6.9-1.45-2.2-.2-3.75-1.45l-1.1-1.2L-9.4.05l5.85.45q-2.8-1.9-3.55-3.45-.35-.8-.35-2.7 1 1.7 2.65 2.25 2 .75 4.1 3.15-.8-4.85 2.15-7" fill="#ef3b28" fill-rule="evenodd" transform="translate(21.9 8.9)"/><path d="m13.35 4.85-3.2-.2q3.1 1.6 6.2 6.4Q8.2 8.5 5.1 2.1v3q-1.35-2.65-4-4 0 3.6-.75 4.35 0-1-1.1-2.15Q-1.9 2.1-1.9 1.1q-6.35 7.5-13.6 9.3 2.1-2.9 3.2-3.6l-.65-.05q2.8-.65 5.9-2.8L-1.9.1l1 1.15Q-.55 1.4.1.1q3 0 4 2v-2q3.65 2.75 9.25 4.75" fill="#ff8132" fill-rule="evenodd" transform="translate(21.9 8.9)"/><path d="M1.45-7.25Q-1.5-5.1-.7-.25q-2.1-2.4-4.1-3.15-1.65-.55-2.65-2.25 0 1.9.35 2.7Q-6.35-1.4-3.55.5L-9.4.05l-5.15.15 1.1 1.2q1.55 1.25 3.75 1.45Q-14 4.5-16.6 4.3q1.3 2.3 4.3 2.5-1.1.7-4.35 5.2-3.35 4.65-4.75 5.7 6.55-2.15 12.2-8.6l-.75 2.15q-.75 2.8-.45 6Q-7.7 8.2-1.7 3.8l.3 1.6q.15 1.9-.5 3.65 2.15-.5 3.4-2.2 1.1-1.5 1.1-3L4.8 6.8q2.4 3.75 3.2 8.05.8-3.7.05-6.9 4.85 6.65 12.4 7.2-1.8-.7-4.45-4.7-2.85-4.25-5.85-5.8 3.9 1 7.15-.95-2.7-.55-6.15-2.4Q8.35-.15 4.8-.35 8.5-2.3 8.35-5.9q-.7.8-3.65 1.9-2.25.9-3.25 3.4-.85-2.3.8-4.85L4.6-8.4 1.45-7.25Z" fill="none" stroke="#a1281b" stroke-linecap="round" stroke-linejoin="round" transform="translate(21.9 8.9)"/><path d="M-2.85 3.25q-.8.6-1.05-.75-1.05 3.15-1.8 2.35l-1-1.6-3.05 3.1q-.35.15.15-1.15l1.2-2.45q-1 3.05 1.85-.3Q-6 4.7-4.1 1.8q1.1 1.45 2-.3.05 1.2-.75 1.75m10.2-.65q.75 1.15 1.2 2.45.45 1.3.1 1.2-.45-.2-3-3.15.95 2-.05 1.75-.8-.15-1.9-1.25-1.05-1-1.25-1.6-.3 1.35-1.15 1-.9-.4-.85-1.55.85 1.6 2-.15Q3 2.15 4 2.7q1.2.7 1.45-.4 2.9 3.35 1.9.3" fill="#fffddb" fill-rule="evenodd" transform="translate(21.9 8.9)"/></g></defs></svg>

<?xml version="1.0" encoding="UTF-8" standalone="no"?>
<svg xmlns:xlink="http://www.w3.org/1999/xlink" height="92.9px" width="100.7px" xmlns="http://www.w3.org/2000/svg">
  <g transform="matrix(1.0, 0.0, 0.0, 1.0, 38.65, 49.75)">
    <use height="27.1" transform="matrix(1.0, 0.0, 0.0, 1.0, -21.9, -8.9)" width="42.85" xlink:href="#shape0"/>
  </g>
  <defs>
    <g id="shape0" transform="matrix(1.0, 0.0, 0.0, 1.0, 21.9, 8.9)">
      <path d="M1.45 -7.25 L4.6 -8.4 2.25 -5.45 Q0.6 -2.9 1.45 -0.6 2.45 -3.1 4.7 -4.0 7.65 -5.1 8.35 -5.9 8.5 -2.3 4.8 -0.35 8.35 -0.15 11.15 1.3 14.6 3.15 17.3 3.7 14.05 5.65 10.15 4.65 13.15 6.2 16.0 10.45 18.65 14.45 20.45 15.15 12.9 14.6 8.05 7.95 8.8 11.15 8.0 14.85 7.2 10.55 4.8 6.8 L2.6 3.85 Q2.6 5.35 1.5 6.85 0.25 8.55 -1.9 9.05 -1.25 7.3 -1.4 5.4 L-1.7 3.8 Q-7.7 8.2 -10.4 17.25 -10.7 14.05 -9.95 11.25 L-9.2 9.1 Q-14.85 15.55 -21.4 17.7 -20.0 16.65 -16.65 12.0 -13.4 7.5 -12.3 6.8 -15.3 6.6 -16.6 4.3 -14.0 4.5 -9.7 2.85 -11.9 2.65 -13.45 1.4 L-14.55 0.2 -9.4 0.05 -3.55 0.5 Q-6.35 -1.4 -7.1 -2.95 -7.45 -3.75 -7.45 -5.65 -6.45 -3.95 -4.8 -3.4 -2.8 -2.65 -0.7 -0.25 -1.5 -5.1 1.45 -7.25" fill="#ef3b28" fill-rule="evenodd" stroke="none"/>
      <path d="M13.35 4.85 L10.15 4.65 Q13.25 6.25 16.35 11.05 8.2 8.5 5.1 2.1 L5.1 5.1 Q3.75 2.45 1.1 1.1 1.1 4.7 0.35 5.45 0.35 4.45 -0.75 3.3 -1.9 2.1 -1.9 1.1 -8.25 8.6 -15.5 10.4 -13.4 7.5 -12.3 6.8 L-12.95 6.75 Q-10.15 6.1 -7.05 3.95 L-1.9 0.1 -0.9 1.25 Q-0.55 1.4 0.1 0.1 3.1 0.1 4.1 2.1 L4.1 0.1 Q7.75 2.85 13.35 4.85" fill="#ff8132" fill-rule="evenodd" stroke="none"/>
      <path d="M1.45 -7.25 Q-1.5 -5.1 -0.7 -0.25 -2.8 -2.65 -4.8 -3.4 -6.45 -3.95 -7.45 -5.65 -7.45 -3.75 -7.1 -2.95 -6.35 -1.4 -3.55 0.5 L-9.4 0.05 -14.55 0.2 -13.45 1.4 Q-11.9 2.65 -9.7 2.85 -14.0 4.5 -16.6 4.3 -15.3 6.6 -12.3 6.8 -13.4 7.5 -16.65 12.0 -20.0 16.65 -21.4 17.7 -14.85 15.55 -9.2 9.1 L-9.95 11.25 Q-10.7 14.05 -10.4 17.25 -7.7 8.2 -1.7 3.8 L-1.4 5.4 Q-1.25 7.3 -1.9 9.05 0.25 8.55 1.5 6.85 2.6 5.35 2.6 3.85 L4.8 6.8 Q7.2 10.55 8.0 14.85 8.8 11.15 8.05 7.95 12.9 14.6 20.45 15.15 18.65 14.45 16.0 10.45 13.15 6.2 10.15 4.65 14.05 5.65 17.3 3.7 14.6 3.15 11.15 1.3 8.35 -0.15 4.8 -0.35 8.5 -2.3 8.35 -5.9 7.65 -5.1 4.7 -4.0 2.45 -3.1 1.45 -0.6 0.6 -2.9 2.25 -5.45 L4.6 -8.4 1.45 -7.25 Z" fill="none" stroke="#a1281b" stroke-linecap="round" stroke-linejoin="round" stroke-width="1.0"/>
      <path d="M-2.85 3.25 Q-3.65 3.85 -3.9 2.5 -4.95 5.65 -5.7 4.85 L-6.7 3.25 -9.75 6.35 Q-10.1 6.5 -9.6 5.2 L-8.4 2.75 Q-9.4 5.8 -6.55 2.45 -6.0 4.7 -4.1 1.8 -3.0 3.25 -2.1 1.5 -2.05 2.7 -2.85 3.25" fill="#fffddb" fill-rule="evenodd" stroke="none"/>
      <path d="M7.35 2.6 Q8.1 3.75 8.55 5.05 9.0 6.35 8.65 6.25 8.2 6.05 5.65 3.1 6.6 5.1 5.6 4.85 4.8 4.7 3.7 3.6 2.65 2.6 2.45 2.0 2.15 3.35 1.3 3.0 0.4 2.6 0.45 1.45 1.3 3.05 2.45 1.3 3.0 2.15 4.0 2.7 5.2 3.4 5.45 2.3 8.35 5.65 7.35 2.6" fill="#fffddb" fill-rule="evenodd" stroke="none"/>
    </g>
  </defs>
</svg>
